packages/foundations/assets/icons/functional/images/environment/cloud_filled.svg

<svg xmlns="http://www.w3.org/2000/svg" width="32" height="32" fill="none"><path fill="#282D37" fill-rule="evenodd" d="M18.342 6.106c-1.571.264-3.138 1.087-4.237 2.226-.263.272-.552.589-.641.705l-.164.21-.45-.104c-.362-.083-.638-.102-1.41-.098-.852.004-1.018.02-1.471.141-1.651.441-2.958 1.351-3.845 2.676-.42.629-.544.882-.79 1.615l-.206.614-.327.214c-.179.118-.53.406-.779.641-1.687 1.598-2.384 3.894-1.835 6.044a6.1 6.1 0 0 0 1.543 2.755c.868.912 1.774 1.489 2.945 1.878 1.189.394.772.377 9.352.377 7.276 0 7.708-.005 8.213-.1 2.143-.4 3.92-1.605 4.937-3.346 1.17-2.003 1.074-4.519-.248-6.507-.324-.488-.999-1.196-1.494-1.569-.217-.163-.396-.338-.396-.388-.009-.53-.116-1.726-.186-2.063a7.52 7.52 0 0 0-6.102-5.915c-.601-.102-1.821-.105-2.409-.006"/></svg>

<svg width="32" height="32" viewBox="0 0 32 32" fill="none" xmlns="http://www.w3.org/2000/svg"><path d="M18.342 6.106 C 16.771 6.370,15.204 7.193,14.105 8.332 C 13.842 8.604,13.553 8.921,13.464 9.037 L 13.300 9.247 12.850 9.143 C 12.488 9.060,12.212 9.041,11.440 9.045 C 10.588 9.049,10.422 9.065,9.969 9.186 C 8.318 9.627,7.011 10.537,6.124 11.862 C 5.704 12.491,5.580 12.744,5.334 13.477 L 5.128 14.091 4.801 14.305 C 4.622 14.423,4.271 14.711,4.022 14.946 C 2.335 16.544,1.638 18.840,2.187 20.990 C 2.454 22.033,2.960 22.937,3.730 23.745 C 4.598 24.657,5.504 25.234,6.675 25.623 C 7.864 26.017,7.447 26.000,16.027 26.000 C 23.303 26.000,23.735 25.995,24.240 25.900 C 26.383 25.500,28.160 24.295,29.177 22.554 C 30.347 20.551,30.251 18.035,28.929 16.047 C 28.605 15.559,27.930 14.851,27.435 14.478 C 27.218 14.315,27.039 14.140,27.039 14.090 C 27.030 13.560,26.923 12.364,26.853 12.027 C 26.226 8.975,23.809 6.632,20.751 6.112 C 20.150 6.010,18.930 6.007,18.342 6.106 " fill="#282D37" stroke="none" fill-rule="evenodd"></path></svg>
